img/icons/li.svg

<svg width="24" height="25" viewBox="0 0 24 25" fill="none" xmlns="http://www.w3.org/2000/svg">
<path d="M0 7.5L3.80646 9.95779H20.0988C19.8923 10.3783 19.6356 10.8539 19.3166 11.3853H5.2829L9.08936 13.8431H17.6828C17.307 14.3706 16.9516 14.848 16.6271 15.2707H11.0503L14.8117 17.4736C14.7957 17.4911 14.7875 17.5 14.7875 17.5C14.7875 17.5 14.8023 17.4949 14.8304 17.4846L14.8567 17.5L14.9004 17.4588C15.6066 17.1946 19.448 15.6643 21.3391 12.9729C23.4267 10.002 22.9541 7.5 22.9541 7.5H0Z" fill="#FE7300"/>
</svg>

<svg width="24" height="25" fill="none" xmlns="http://www.w3.org/2000/svg"><path d="M0 7.5l3.806 2.458H20.1c-.207.42-.463.896-.782 1.427H5.283l3.806 2.458h8.594a49.773 49.773 0 01-1.056 1.428H11.05l3.762 2.203-.024.026.042-.015.027.015.043-.041c.707-.264 4.548-1.795 6.44-4.486 2.087-2.971 1.614-5.473 1.614-5.473H0z" fill="#FE7300"/></svg>
